src/ios-star-half.svg

<?xml version="1.0" encoding="utf-8"?>
<!-- Generated by IcoMoon.io -->
<!DOCTYPE svg PUBLIC "-//W3C//DTD SVG 1.1//EN" "http://www.w3.org/Graphics/SVG/1.1/DTD/svg11.dtd">
<svg version="1.1" xmlns="http://www.w3.org/2000/svg" xmlns:xlink="http://www.w3.org/1999/xlink" width="512" height="512" viewBox="0 0 512 512">
<path fill="#000000" d="M172.248 304.931l-54.677 159.073 138.429-98.634 138.445 98.634-54.685-159.067 140.24-97.937h-171.387l-52.613-158.995-52.598 158.995h-171.402l140.248 97.931zM256 100.75l41 123.25h131l-108 74.711 42.623 122.481-106.623-75.935v-244.507z"></path>
</svg>

<?xml version="1.0" encoding="utf-8"?>
<!-- Generator: Adobe Illustrator 16.2.1, SVG Export Plug-In . SVG Version: 6.00 Build 0)  -->
<!DOCTYPE svg PUBLIC "-//W3C//DTD SVG 1.1//EN" "http://www.w3.org/Graphics/SVG/1.1/DTD/svg11.dtd">
<svg version="1.1" id="Layer_1" xmlns="http://www.w3.org/2000/svg" xmlns:xlink="http://www.w3.org/1999/xlink" x="0px" y="0px"
	 width="512px" height="512px" viewBox="0 0 512 512" enable-background="new 0 0 512 512" xml:space="preserve">
<path d="M172.248,304.931l-54.677,159.073L256,365.37l138.445,98.634L339.76,304.937L480,207H308.613L256,48.005L203.402,207H32
	L172.248,304.931z M256,100.75L297,224h131l-108,74.711l42.623,122.481L256,345.257V100.75z"/>
</svg>
